apps/32/preferences-system-backup.svg

<svg width="32" height="32" version="1.1" viewBox="0 0 32 32" xmlns="http://www.w3.org/2000/svg" xmlns:xlink="http://www.w3.org/1999/xlink">
<defs>
<linearGradient id="linearGradient3403" x1="6.9492" x2="11.215" y1="4.5549" y2="59.052" gradientUnits="userSpaceOnUse">
<stop style="stop-color:#32373c" offset="0"/>
<stop style="stop-color:#1a1a1a" offset=".36805"/>
<stop style="stop-color:#31363b" offset="1"/>
</linearGradient>
<linearGradient id="linearGradient20558" x1="25.802" x2="25.111" y1="20.374" y2="58.913" gradientUnits="userSpaceOnUse">
<stop style="stop-color:#3d3d3d" offset="0"/>
<stop offset=".61772"/>
<stop style="stop-color:#3d3d3d" offset="1"/>
</linearGradient>
<linearGradient id="linearGradient4557" x1="43.5" x2="44.142" y1="64.012" y2=".30621" gradientTransform="translate(.36068 -.13017)" gradientUnits="userSpaceOnUse">
<stop style="stop-color:#141618" offset="0"/>
<stop style="stop-color:#686868" offset=".51821"/>
<stop style="stop-color:#31363b" offset="1"/>
</linearGradient>
<linearGradient id="linearGradient919" x1="7.4006" x2="33.063" y1="41.743" y2="7.1074" gradientTransform="matrix(.65573 0 0 .65573 .2607 .21781)" gradientUnits="userSpaceOnUse">
<stop style="stop-opacity:.99608" offset="0"/>
<stop style="stop-color:#353a3f;stop-opacity:.99608" offset="1"/>
</linearGradient>
<linearGradient id="e" x1="388.42" x2="0" y1="543.8" y2="503.8" gradientTransform="matrix(1.125,0,0,1,-435.64,-499.8)" gradientUnits="userSpaceOnUse">
<stop stop-color="#7f8c8d" offset="0"/>
<stop stop-color="#afb0b3" offset="1"/>
</linearGradient>
<linearGradient id="f" x2="0" y1="38" y2="5" gradientTransform="translate(40)" gradientUnits="userSpaceOnUse">
<stop stop-color="#eef1f2" offset="0"/>
<stop stop-color="#f9fafb" offset="1"/>
</linearGradient>
<linearGradient id="g" x1="10" x2="24" y1="9" y2="23" gradientTransform="matrix(1.4286 0 0 1.4286 1.143 1.143)" gradientUnits="userSpaceOnUse">
<stop stop-color="#292c2f" offset="0"/>
<stop stop-opacity="0" offset="1"/>
</linearGradient>
<linearGradient id="h" x1="22" x2="22" y1="32" y2="10" gradientTransform="matrix(1.4286 0 0 1.4286 1.143 1.143)" gradientUnits="userSpaceOnUse">
<stop stop-color="#3e3e3e" offset="0"/>
<stop stop-color="#5c5c5c" offset="1"/>
</linearGradient>
</defs>
<rect x="2.3347" y="2.1971" width="27.596" height="28.008" ry="0" style="fill-rule:evenodd;fill:url(#linearGradient919)"/>
<g transform="matrix(.66849 0 0 .66849 1.6426 -.61564)">
<path d="m16.838 4a10.809 10.809 0 0 0-7.67 3.168 10.809 10.809 0 0 0-3.168 7.67v29.162h36v-14.227h-4e-3v-14.935a10.81 10.81 0 0 0-3.168-7.67 10.809 10.809 0 0 0-7.67-3.168z" style="fill:url(#e)"/>
<path d="m6 39.9h36v4.1h-36z" style="fill:#626b6c"/>
<path d="m6 43h36v1h-36z" style="fill:#737b81"/>
<g style="fill:#292c2e;stroke-width:.1">
<path d="m16 41h12v3h-12zm16 0h6v3h-6z"/>
</g>
<path d="m17.367 6.025a9.34 9.34 0 0 0-9.367 9.367v4.659c1.698 0.243 3 1.684 3 3.451a3.48 3.48 0 0 1-3 3.45v5.048l1.459 1.486 0.012 0.014c0.02 0.024 0.048 0.044 0.07 0.068l4.354 4.432h10.062l0.043 2e-3h4.088v-2e-3h5.912l3.719-3.719c0.292-0.245 0.567-0.502 0.81-0.781 0.037-0.043 0.068-0.09 0.104-0.133l1.367-1.367v-5.049a3.48 3.48 0 0 1-3-3.449 3.483 3.483 0 0 1 3-3.451v-4.658a9.345 9.345 0 0 0-5.715-8.633 9.376 9.376 0 0 0-3.547-0.729c-9e-3 -1e-3 -0.017-6e-3 -0.027-6e-3z" style="fill:url(#f)"/>
<path d="m18 42v1h8v-1zm15 0v1h3v1h1v-2z" style="fill:#f6b44d"/>
<g style="fill:#202324">
<path d="m16 43h12v1h-12zm16 0h6v1h-6z"/>
</g>
<path d="m26.394 39.714h14.749v-17.604l-9.143-9.11-8-2.92-8.571 3.92-2.229 7.143 2.713 8.088z" style="fill:url(#g);opacity:.2"/>
<path d="m24 10a11 11 0 0 0-11 11 11 11 0 0 0 11 11 11 11 0 0 0 11-11 11 11 0 0 0-11-11zm0 1a10 10 0 0 1 10 10 10 10 0 0 1-10 10 10 10 0 0 1-10-10 10 10 0 0 1 10-10zm-1 2v9h7v-1h-6v-8z" style="fill:url(#h);paint-order:stroke fill markers"/>
</g>
<path transform="matrix(.49303 0 0 .49303 .32608 .23412)" d="m4.7043 3.9815-0.012938 56.82h53.904l1.0222-2.8664s-23.875 0.76639-32.844-4.1404c-10.516-5.7529-15.372-49.697-15.372-49.697z" style="fill:url(#linearGradient3403);mix-blend-mode:normal;stroke-linejoin:round;stroke-width:1.1624;stroke:url(#linearGradient20558)"/>
<rect transform="matrix(.46186 0 0 .46092 1.1545 1.2304)" x="1.0324" y=".59551" width="62.567" height="62.867" rx="5.803" ry="6.2447" style="fill:none;stroke-linejoin:round;stroke-miterlimit:7.8;stroke-opacity:.99515;stroke-width:3.7137;stroke:url(#linearGradient4557)"/>
</svg>

<?xml version="1.0" encoding="UTF-8" standalone="no"?>
<!-- Created with Inkscape (http://www.inkscape.org/) -->

<svg
   width="32"
   height="32"
   version="1.1"
   viewBox="0 0 32 32"
   id="svg22"
   sodipodi:docname="preferences-system-backup.svg"
   inkscape:version="1.1.2 (0a00cf5339, 2022-02-04)"
   xmlns:inkscape="http://www.inkscape.org/namespaces/inkscape"
   xmlns:sodipodi="http://sodipodi.sourceforge.net/DTD/sodipodi-0.dtd"
   xmlns:xlink="http://www.w3.org/1999/xlink"
   xmlns="http://www.w3.org/2000/svg"
   xmlns:svg="http://www.w3.org/2000/svg">
  <sodipodi:namedview
     id="namedview24"
     pagecolor="#ffffff"
     bordercolor="#666666"
     borderopacity="1.0"
     inkscape:showpageshadow="2"
     inkscape:pageopacity="0.0"
     inkscape:pagecheckerboard="0"
     inkscape:deskcolor="#d1d1d1"
     showgrid="false"
     inkscape:zoom="11.25"
     inkscape:cx="11.733333"
     inkscape:cy="26.888889"
     inkscape:window-width="1920"
     inkscape:window-height="999"
     inkscape:window-x="0"
     inkscape:window-y="0"
     inkscape:window-maximized="1"
     inkscape:current-layer="svg22"
     inkscape:pageshadow="2" />
  <defs
     id="defs12">
    <linearGradient
       inkscape:collect="always"
       id="linearGradient917">
      <stop
         style="stop-color:#000000;stop-opacity:0.99607843"
         offset="0"
         id="stop913" />
      <stop
         style="stop-color:#353a3f;stop-opacity:0.99607843"
         offset="1"
         id="stop915" />
    </linearGradient>
    <linearGradient
       id="linearGradient1005-3-3"
       x1="5.2535"
       x2="9.3823996"
       y1="15.383"
       y2="2.9421"
       gradientTransform="matrix(0.99999,0,0,0.99999,1.632,-0.61743)"
       gradientUnits="userSpaceOnUse">
      <stop
         stop-color="#fa8200"
         offset="0"
         id="stop2" />
      <stop
         stop-color="#ff9600"
         offset=".36953"
         id="stop4" />
      <stop
         stop-color="#ffb400"
         offset="1"
         id="stop6" />
    </linearGradient>
    <filter
       id="filter4014"
       x="-0.062499933"
       y="-0.057692993"
       width="1.1249999"
       height="1.115386"
       color-interpolation-filters="sRGB">
      <feGaussianBlur
         stdDeviation="1.093751"
         id="feGaussianBlur9" />
    </filter>
    <linearGradient
       inkscape:collect="always"
       xlink:href="#linearGradient3487"
       id="linearGradient3403"
       gradientUnits="userSpaceOnUse"
       x1="6.9491749"
       y1="4.5549412"
       x2="11.215498"
       y2="59.052471" />
    <linearGradient
       id="linearGradient3487">
      <stop
         style="stop-color:#32373c;stop-opacity:1"
         offset="0"
         id="stop3481" />
      <stop
         id="stop3483"
         offset="0.36804965"
         style="stop-color:#1a1a1a;stop-opacity:1" />
      <stop
         style="stop-color:#31363b;stop-opacity:1"
         offset="1"
         id="stop3485" />
    </linearGradient>
    <linearGradient
       inkscape:collect="always"
       xlink:href="#linearGradient20604"
       id="linearGradient20558"
       gradientUnits="userSpaceOnUse"
       x1="25.802212"
       y1="20.373846"
       x2="25.111048"
       y2="58.912758" />
    <linearGradient
       id="linearGradient20604">
      <stop
         id="stop20598"
         offset="0"
         style="stop-color:#3d3d3d;stop-opacity:1" />
      <stop
         style="stop-color:#000000;stop-opacity:1"
         offset="0.61772454"
         id="stop20600" />
      <stop
         id="stop20602"
         offset="1"
         style="stop-color:#3d3d3d;stop-opacity:1" />
    </linearGradient>
    <filter
       inkscape:collect="always"
       style="color-interpolation-filters:sRGB"
       id="filter20720"
       x="-0.017024755"
       y="-0.016457183"
       width="1.0340491"
       height="1.0329144">
      <feGaussianBlur
         inkscape:collect="always"
         stdDeviation="0.14745661"
         id="feGaussianBlur20722" />
    </filter>
    <linearGradient
       gradientTransform="translate(0.36067797,-0.13016949)"
       xlink:href="#linearGradient4555"
       id="linearGradient4557"
       x1="43.499737"
       y1="64.011795"
       x2="44.141731"
       y2="0.30621234"
       gradientUnits="userSpaceOnUse" />
    <linearGradient
       id="linearGradient4555">
      <stop
         style="stop-color:#141618;stop-opacity:1"
         offset="0"
         id="stop4551" />
      <stop
         id="stop4559"
         offset="0.51820582"
         style="stop-color:#686868;stop-opacity:1" />
      <stop
         style="stop-color:#31363b;stop-opacity:1"
         offset="1"
         id="stop4553" />
    </linearGradient>
    <filter
       style="color-interpolation-filters:sRGB"
       id="filter4601"
       x="-0.030244955"
       width="1.0604899"
       y="-0.030100647"
       height="1.0602013">
      <feGaussianBlur
         stdDeviation="0.014790289"
         id="feGaussianBlur4603" />
    </filter>
    <linearGradient
       inkscape:collect="always"
       xlink:href="#linearGradient917"
       id="linearGradient919"
       x1="7.400631"
       y1="41.743092"
       x2="33.063145"
       y2="7.1074457"
       gradientUnits="userSpaceOnUse"
       gradientTransform="matrix(0.65573053,0,0,0.65573053,0.26070441,0.21780548)" />
    <linearGradient
       xlink:href="#a"
       id="e"
       gradientUnits="userSpaceOnUse"
       gradientTransform="matrix(1.125,0,0,1,-435.64,-499.8)"
       y1="543.79999"
       x2="0"
       y2="503.79999" />
    <linearGradient
       id="a"
       gradientTransform="matrix(0.58696,0,0,0.53846,-227.988,-270.353)"
       gradientUnits="userSpaceOnUse"
       x1="388.423"
       x2="388.423"
       y1="557.79797"
       y2="505.798">
      <stop
         offset="0"
         stop-color="#7f8c8d"
         id="stop9" />
      <stop
         offset="1"
         stop-color="#afb0b3"
         id="stop11" />
    </linearGradient>
    <linearGradient
       xlink:href="#b"
       id="f"
       gradientUnits="userSpaceOnUse"
       y1="38"
       x2="0"
       y2="5" />
    <linearGradient
       id="b"
       y1="38"
       y2="5"
       x2="0"
       gradientUnits="userSpaceOnUse"
       gradientTransform="translate(40)">
      <stop
         stop-color="#eef1f2"
         id="stop2-5" />
      <stop
         offset="1"
         stop-color="#f9fafb"
         id="stop4-4" />
    </linearGradient>
    <linearGradient
       id="g"
       gradientUnits="userSpaceOnUse"
       x1="10"
       x2="24"
       xlink:href="#c"
       y1="9"
       y2="23"
       gradientTransform="matrix(1.42857,0,0,1.42857,1.143,1.143)" />
    <linearGradient
       id="c">
      <stop
         offset="0"
         stop-color="#292c2f"
         id="stop14" />
      <stop
         offset="1"
         stop-opacity="0"
         id="stop16" />
    </linearGradient>
    <linearGradient
       xlink:href="#d"
       id="h"
       x1="22"
       y1="32"
       x2="22"
       y2="10"
       gradientUnits="userSpaceOnUse" />
    <linearGradient
       id="d"
       gradientUnits="userSpaceOnUse"
       x1="16"
       x2="16"
       y1="22"
       y2="6"
       gradientTransform="matrix(1.42857,0,0,1.42857,1.143,1.143)">
      <stop
         offset="0"
         stop-color="#3e3e3e"
         id="stop20" />
      <stop
         offset="1"
         stop-color="#5c5c5c"
         id="stop22" />
    </linearGradient>
  </defs>
  <rect
     style="display:inline;fill:url(#linearGradient919);fill-opacity:1;fill-rule:evenodd;stroke:none;stroke-width:0.6084;stroke-linejoin:round;stroke-miterlimit:7.8"
     id="rect1192"
     width="27.596159"
     height="28.007633"
     x="2.3347213"
     y="2.1971214"
     ry="0"
     inkscape:label="arriere" />
  <g
     id="g862"
     transform="matrix(0.66849478,0,0,0.66849478,1.6426032,-0.6156351)">
    <path
       d="M 16.838,4 A 10.809,10.809 0 0 0 9.168,7.168 10.809,10.809 0 0 0 6,14.838 V 44 H 42 V 29.773 H 41.996 V 14.838 A 10.81,10.81 0 0 0 38.828,7.168 10.809,10.809 0 0 0 31.158,4 Z"
       id="path33"
       style="fill:url(#e)"
       inkscape:connector-curvature="0" />
    <path
       d="M 6,39.9 H 42 V 44 H 6 Z"
       id="path35"
       inkscape:connector-curvature="0"
       style="fill:#626b6c" />
    <path
       d="m 6,43 h 36 v 1 H 6 Z"
       id="path37"
       inkscape:connector-curvature="0"
       style="fill:#737b81" />
    <g
       id="g41"
       style="fill:#292c2e;stroke-width:0.1">
      <path
         d="m 16,41 h 12 v 3 H 16 Z m 16,0 h 6 v 3 h -6 z"
         id="path39"
         inkscape:connector-curvature="0" />
    </g>
    <path
       d="M 17.367,6.025 A 9.34,9.34 0 0 0 8,15.392 v 4.659 c 1.698,0.243 3,1.684 3,3.451 a 3.48,3.48 0 0 1 -3,3.45 V 32 l 1.459,1.486 0.012,0.014 c 0.02,0.024 0.048,0.044 0.07,0.068 L 13.895,38 H 23.957 L 24,38.002 h 4.088 V 38 H 34 l 3.719,-3.719 c 0.292,-0.245 0.567,-0.502 0.81,-0.781 0.037,-0.043 0.068,-0.09 0.104,-0.133 L 40,32 v -5.049 a 3.48,3.48 0 0 1 -3,-3.449 3.483,3.483 0 0 1 3,-3.451 V 15.393 A 9.345,9.345 0 0 0 34.285,6.76 9.376,9.376 0 0 0 30.738,6.031 C 30.729,6.03 30.721,6.025 30.711,6.025 Z"
       id="path43"
       style="fill:url(#f)"
       inkscape:connector-curvature="0" />
    <path
       d="m 18,42 v 1 h 8 v -1 z m 15,0 v 1 h 3 v 1 h 1 v -2 z"
       id="path45"
       inkscape:connector-curvature="0"
       style="fill:#f6b44d" />
    <g
       id="g49"
       style="fill:#202324">
      <path
         d="m 16,43 h 12 v 1 H 16 Z m 16,0 h 6 v 1 h -6 z"
         id="path47"
         inkscape:connector-curvature="0" />
    </g>
    <path
       d="M 26.394,39.714 H 41.143 V 22.11 L 32,13 24,10.08 15.429,14 13.2,21.143 l 2.713,8.088 z"
       id="path51"
       style="opacity:0.2;fill:url(#g)"
       inkscape:connector-curvature="0" />
    <path
       d="M 24,10 A 11,11 0 0 0 13,21 11,11 0 0 0 24,32 11,11 0 0 0 35,21 11,11 0 0 0 24,10 Z m 0,1 A 10,10 0 0 1 34,21 10,10 0 0 1 24,31 10,10 0 0 1 14,21 10,10 0 0 1 24,11 Z m -1,2 v 9 h 7 v -1 h -6 v -8 z"
       id="path53"
       style="fill:url(#h);paint-order:stroke fill markers"
       inkscape:connector-curvature="0" />
  </g>
  <path
     style="display:inline;mix-blend-mode:normal;fill:url(#linearGradient3403);fill-opacity:1;stroke:url(#linearGradient20558);stroke-width:1.16242;stroke-linecap:butt;stroke-linejoin:round;stroke-miterlimit:4;stroke-dasharray:none;stroke-opacity:1;filter:url(#filter20720)"
     d="M 4.7043071,3.9814882 4.6913695,60.80196 H 58.59546 l 1.022155,-2.866369 c 0,0 -23.87537,0.766388 -32.844441,-4.140386 C 16.257548,48.042344 11.401114,4.0978197 11.401114,4.0978197 Z"
     id="path1686"
     sodipodi:nodetypes="ccccscc"
     transform="matrix(0.49303047,0,0,0.49303047,0.32608381,0.23412423)"
     inkscape:label="folder" />
  <rect
     style="display:inline;fill:none;fill-opacity:1;stroke:url(#linearGradient4557);stroke-width:3.71366;stroke-linejoin:round;stroke-miterlimit:7.8;stroke-dasharray:none;stroke-opacity:0.995146;filter:url(#filter4601)"
     id="rect4539"
     width="62.566689"
     height="62.866646"
     x="1.0323594"
     y="0.59551275"
     ry="6.2447233"
     rx="5.8029528"
     transform="matrix(0.46186244,0,0,0.46092106,1.1544551,1.2303888)"
     inkscape:label="contour" />
</svg>
